!!!OTL: JUNG HAENSCHEN SASS AM HOHEN THOR
!!!ARE: Europa, Mitteleuropa, Deutschland, Herzogtum Berg
!!!SCT: Z0090
!!!YEM: Copyright 1995, estate of Helmut Schaffrath.
**kern
*ICvox
*Ivox
*M3/8
*k[f#c#]
*D:
{8e
=1
4a
8b
=2
4ccn
8dd
=3
4b
8ccn
=4
4a}
{8a
=5
8g#
8a
8b
=6
4a}
{8b
=7
4ccn
8dd
=8
4b
8ccn
=9
4a
8g#
=10
4a}
{8g
=11
16fn
16e
8d
8fn
=12
16e
16d
8c#}
{8c#
=13
8d
8e
8fn
=14
4g
8a
=15
8e
16fn
16e
8d}
==
!!!AGN: Sagen - Lied, Romanze
!! Modulation in T.11
!!!ONB: ESAC (Essen Associative Code) Database: ZUCCAL
!!!AMT: simple triple
!!!AIN: vox
!!!EED: Helmut Schaffrath
!!!EEV: 1.0
*-
